X:1
T:Esto mihi
T:Heinrich Isaac edit BMarble
T:In you O Lord, I have put my trust; do not let me be put to shame; In your justice deliver me.
T:Esto mihi 
T:Copyright © 2017 by CPDL.  This edition can be fully distributed, duplicated, performed, and recorded. 
T:Copyright © 2017 by CPDL.  This edition can be fully distributed, duplicated, performed, and recorded. 
T:Copyright © 2017 by CPDL.  This edition can be fully distributed, duplicated, performed, and recorded. 
T:Copyright © 2017 by CPDL.  This edition can be fully distributed, duplicated, performed, and recorded. 
T:Copyright © 2017 by CPDL.  This edition can be fully distributed, duplicated, performed, and recorded. 
T:Copyright © 2017 by CPDL.  This edition can be fully distributed, duplicated, performed, and recorded. 
T:Copyright © 2017 by CPDL.  This edition can be fully distributed, duplicated, performed, and recorded. 
T:Copyright © 2017 by CPDL.  This edition can be fully distributed, duplicated, performed, and recorded. 
T:Copyright © 2017 by CPDL.  This edition can be fully distributed, duplicated, performed, and recorded. 
C:Heinrich Isaac
C:edit BMarble
Z:In you O Lord, I have put my trust;
Z:do not let me be put to shame;
Z:In your justice deliver me.
Z:Copyright © 2017 by CPDL.  This edition can be fully distributed, duplicated, performed, and recorded.
Z:
%%score [ 1 2 3 4 ]
L:1/8
M:4/4
K:G
V:1 treble nm="SOPRANO" snm="S."
V:2 treble nm="ALTO" snm="A."
V:3 treble-8 transpose=-12 nm="TENOR" snm="T."
V:4 bass nm="BASS" snm="B."
V:1
 z16 ||[M:4/2][Q:1/2=100] E8 F8 | G8 z8 | G8 F8 | D16 | z8 A8 | B8 A4 B4- | B4 A2 G2 A8 | %8
w: |in _|_|De- *|um|pro-|te- * cto-||
 G4 B4 c4 d4- | d4 c2 B2 c8 | B8 z8 | G8 G8 | A8 G8 | E8 F4 G4- | G4 F2 E2 F8 | E4 B6 A2 G4- | %16
w: rem, pro- te- cto-||rem,|et in|lo- cum|re- fu- gi-||i, re- * *|
 G4 F4 E4 G4- | G2 F2 E4 D2 C2 B,4- | B,4 E8 ^D4 | E12 F4 | G6 A2 B8 | A8 z4 A4 | E4 A8 G2 =F2 | %23
w: * * fu- gi-|* * * i, _ _|_ ut _|sal- *||vum, sal-|vum me _ _|
 E8 D4 E4 | D4 G8 F4 | G8 z8 | G8 A8 | B8 B4 B4 | B8 B8 | A6 G2 A4 B4- | B2 A2 G8 F4 | G8 z4 G4 | %32
w: _ fa- ci-|as, fa- ci-|as:|quo- ni-|am fir- ma-|men- tum|me- * um, me-||um, et|
 F6 G2 A4 B4- | B2 A2 G2 F2 G8 | F16 | z8 d8 | B4 d6 c2 B2 A2 | c4 B8 A2 G2 | F4 G8 F4 | G16 | %40
w: re- * * fu-|* * * * gi-|um|me-|um es _ _ _|tu, me- * *|* um es|tu:|
 z8 D8 | G8 A8 | B8 z4 B4- | B4 A2 G2 A8 | G16 | A8 B4 c4- | c2 B2 A8 ^G4 | A8 z8 | B6 c2 d8 | %49
w: et|pro- *|pter no-||men|tu- um, tu-||um|dux _ _|
 z4 d8 c2 B2 | A6 G2 A4 B4- | B4 A2 G2 A8 | G8 z4 G4- | G4 E4 F4 G4 | E4 F4 G4 A4 | F4 G4 A4 B4- | %56
w: mi- * *|hi _ _ e-||ris; et|_ e- nu- *|* tri- es, e-|nu- * * tri-|
 B2 A2 G8 F4 | G16- | G16 |] z16 | z16 | z16 || B8 B4 A4- | A2 B2 G8 F4 | G16 | z4 B4 A4 F4 | %66
w: * * * es|me.|_||||In ju- sti-|* * * ti-|a|tu- a _|
 G4 D4 G6 A2 | B4 c4 B4 A4- | A2 E2 G8 F4 | G16 || z16 | z16 | z16 || B8 B4 A4- | A2 B2 G8 F4 | %75
w: _ li- * be-|ra _ me, li-|* be- ra _|me.||||si- cut e-|* rat in prin-|
 G6 G2 G8 | z4 B4 A4 F4 | G4 D4 G6 A2 | B4 c4 B4 A4- |"^rit." A2 E2 G6 FE F4 | G16 |] %81
w: ci- pi- o,|et nunc et|sem- per et in|sae- cu- la sae-|* cu- lo- rum. * A-|men.|
V:2
 z16 ||[M:4/2] B,6 C2 D8 | G,8 z4 D4 | B,4 C4 A,8 | B,8 A,4 D4- | D4 C2 B,2 A,8 | %6
w: |in _ _|_ De-||um, in De-|* * * um|
 G,2 A,2 B,2 C2 D8 | B,4 E8 ^D4 | E8 z4 F4 | D4 G8 F4 | G4 G,6 A,2 B,2 C2 | D4 E6 F2 G4 | F8 E8 | %13
w: pro- * * * *|te- cto- *|rem, pro-|te- cto- *|rem, et _ _ _|_ in _ _|lo- cum|
 z4 E4 D4 B,4 | B,4 E8 ^D4 | E6 =D2 B,4 C4 | D8 z4 B,4 | C6 B,2 A,4 G,4 | E,8 B,8 | %19
w: re- fu- gi-|i, in lo-|cum _ _ _|_ re-|fu- * * gi-|i ut|
 z4 G,6 A,2 B,2 C2 | D16- | D16 | C16 | z4 C4 B,4 G,4 | B,6 C2 D8 | z4 B,8 A,2 G,2 | D8 E8 | %27
w: sal- * * *|||vum,|sal- vum me|fa- ci- as;|quo- * *|* ni-|
 F8 F4 F4 | F8 F8 | E8 F4 G4- | G2 F2 E2 D2 C8 | D16 | z4 D6 E2 F2 G2 | E4 D8 ^C4 | D8 z4 D4 | %35
w: am fir- ma-|men- tum|me- um, me-||um,|et _ _ _|ri- fu- gi-|um me-|
 B,4 D6 C2 B,2 A,2 | G,8 D8 | E6 D2 B,4 D4- | D4 C2 B,2 A,8 | G,6 A,2 B,2 C2 B,4- | %40
w: um es _ _ _|_ tu,|re- * fu- gi-|* * * um|me- * * * *|
 B,4 A,2 G,2 F,8 | G,8 z8 | z8 G8 | ^F8 E8 | z4 E4 D4 E4 | =F12 G4 | =F2 E2 D2 C2 E8 | %47
w: * um _ es|tu:|et|pro- pter|no- * men|tu- um,|tu- * * * *|
 !courtesy!^C8 D8 | z4 D4 B,6 C2 | D12 E4 | F6 E2 F4 D4- | D4 G8 F4 | G4 E4 D8 | %53
w: um _|dux _ _|_ mi-|hi _ _ e-|* * ris|et e- nu-|
 E2 D2 C2 B,2 A,4 G,4 | A,8 G,4 E,4 | F,4 E,8 F,4 | G,2 A,2 B,2 C2 D8 | z4 D4 E8 | D16 |] z16 | %60
w: tri- * * * * *|es me, e-|* nu- tri-|es _ _ _ _|me. _|_||
 z16 | z16 || G8 G4 =F4- | F4 E4 D8 | B,12 C4 | D8 z4 D4- | D2 C2 B,2 A,2 G,8 | z4 G,8 A,4 | %68
w: ||In ju- sti-|* ti- a|tu- *|a, tu-|* * * * a|li- be-|
 B,4 C4 D8- | D16 || z16 | z16 | z16 || G8 G4 =F4 | =F4 E4 D8 | B,12 C4 | D8 z4 D4- | %77
w: ra _ me.|_||||si- cut e-|rat in prin-|ci- pi-|o, sem-|
 D2 C2 B,2 A,2 G,8 | z4 G,8 A,4 | B,4 C4 D8 | D16 |] %81
w: * * * * per|sae- cu-|lo- rum. A-|men.|
V:3
 G2 (E2 G2) G2 E8 ||[M:4/2] z16 | E8 F8 | G8 z8 | G8 F8 | D16 | z16 | z8 A8 | B8 A4 B4- | %9
w: Es- to _ mi- hi||in _|_|De- *|um||pro-|te- * cto-|
 B4 A2 G2 A8 | G16- | G16 | z16 | z16 | z16 | G8 G8 | A8 G8 | E8 F4 G4- | G4 F2 E2 F4 F4 | E16 | %20
w: |rem,|_||||et in|lo- cum|re- fu- *|* * * * gi-|i,|
 z8 G8 | F8 A8 | A8 A8 | c8 G8 | G8 A8 | G8 z8 | B8 c8 | d8 d4 d4 | d8 d8 | c6 B2 A4 G4 | %30
w: ut|_ sal-|vum me|_ fa-|ci- *|as,|quo- ni-|am fir- ma-|men- tum|fir- ma- men- tum,|
 B4 c4 A8 | G16 | z16 | G8 G8 | A8 A8 | G16 | G8 G8 | E8 F8 | D16- | D16 | z8 z4 d4 | B4 c8 B2 A2 | %42
w: me- * *|um,||et re-|fu- gi-|um|me- um|es _|tu:|_|et|pro pter _ _|
 G6 A2 B2 c2 d4- | d4 c2 B2 c8 | B8 z4 B4 | c8 d4 e4 | A8 B8 | A16 | z16 | B12 c4 | d8 d8 | d16 | %52
w: no- * * * *||men tu-|um, no- men|tu- *|um||dux _|mi- hi|e-|
 G16 | B4 c4 d4 B4 | c4 d4 B4 c4 | d4 B4 c4 d4 | G8 A8 | G16- | G16 |] %59
w: ris|et e- nu- *|* tri- es, e-|nu- * * tri-|es _|me.|_|
 (G2 A2) (A2 G2) (A2 B2) B2 B2 | B2 B2 B8 B2 B2 | B2 A2 c2 B2 A2 G6 || B8 B4 d4- | d4 c2 B2 A4 A4 | %64
w: In _ te _ Do- * mi- ne|spe- ra- vi; non con-|fun- dar in ae- ter- num:|In ju- sti-|* * * * ti-|
 G8 z8 | G8 A8 | G8 E8 | G6 A2 B4 c4 | G8 A8 | G16 || (G2 A2) (A2 G2) (A2 B2) B2 B2 | %71
w: a|tu- a|li- be-|ra, _ _ li-|be- ra|me.|Glo- * ri- * a _ Pa- tri|
 B2 B2 B2 B8 B2 | A2 c2 B2 B2 A2 G6 || B8 B4 d4 | d4 c2 B2 A4 A4 | G8 z4 G4 | G4 G4 A8 | G8 E4 E4 | %78
w: et Fi- li- o et|Spi- ri- tu- i San- cto,|si- cut e-|rat in prin- ci- pi-|o, et|nunc et sem-|per et in|
 G4 G2 A2 B4 c4 | G4 G4 A8 | G16 |] %81
w: sae- cu- la sae- cu-|lo- rum. A-|men.|
V:4
 z16 ||[M:4/2] E,8 D,8 | C,4 E,8 D,4 | E,4 C,4 D,8 | G,,8 D,8- | D,4 E,4 F,8 | G,8 F,4 G,4- | %7
w: |in _|_ De- *|um, in De-|um pro-||te- * cto-|
 G,4 F,2 E,2 F,8 | E,8 z8 | z16 | z4 G,4 E,4 G,4- | G,2 F,2 E,2 D,2 E,8 | D,8 E,8 | C,8 D,4 E,4- | %14
w: |rem,||et in lo-||cum _|re- fu- gi-|
 E,4 D,2 C,2 B,,8 | z8 E,8 | D,8 E,8 | C,8 D,4 E,4- | E,4 D,2 C,2 B,,8 | z4 C,8 B,,2 A,,2 | G,,16 | %21
w: * * * i,|in|lo- cum|re- fu- gi-|* * * i,|ut _ _|sal-|
 D,16 | z4 =F,8 E,2 D,2 | C,8 z4 G,4- | G,2 ^F,2 E,4 D,8 | G,,8 z8 | z16 | z16 | z16 | z16 | z16 | %31
w: vum|me _ _|_ fa-|* * * ci-|as,||||||
 z16 | D,8 D,8 | E,8 E,8 | (D,16 | G,,16-) | G,,16 | z16 | z16 | G,,12 G,,4 | B,,6 C,2 D,8 | %41
w: |et re-|fu- gi-|um|_||||et pro-|pter _ _|
 E,8 =F,8 | G,16 | z8 A,8 | E,8 G,8 | =F,6 E,2 D,4 C,4 | =F,8 E,8 | A,,8 D,8 | G,,16- | G,,16 | %50
w: no- *|men,|no-|men tu-|um, _ pro- pter|no- *|men tu-|um|_|
 z16 | z8 D,8 | E,4 C,4 G,6 F,2 | E,4 A,,4 D,4 E,4 | A,,4 D,4 E,4 A,,4 | D,4 E,4 A,,4 D,4 | %56
w: |et|e- nu- tri- *|es, e- nu- *|* tri- es, e-|nu- * * tri-|
 E,8 D,8 | G,,16- | G,,16 |] z16 | z16 | z16 || G,12 D,4 | =F,4 G,4 D,8 | E,12 D,2 C,2 | %65
w: es _|me.|_||||In ju-|sti- ti- a|tu- a _|
 B,,4 G,,4 D,8 | G,,8 z4 G,4 | E,4 C,4 G,4 =F,4 | E,8 D,8 | G,,16 || z16 | z16 | z16 || G,12 D,4 | %74
w: li- be- ra|me, li-|be- ra, li- be-|ra _|me.||||si- cut|
 =F,4 G,4 D,4 D,4 | E,12 D,2 C,2 | B,,4 G,,4 D,8 | G,,8 z4 G,4 | E,4 C,2 C,2 G,4 =F,4 | %79
w: e- rat in prin-|ci- pi- *|o, et nunc|et in|sae- cu- la sae- cu-|
 E,8 D,4 D,4 | G,,16 |] %81
w: lo- rum. A-|men.|

